modules/stroke-7/icons/way.svg

<?xml version="1.0" encoding="utf-8"?>
<!-- Generated by IcoMoon.io -->
<!DOCTYPE svg PUBLIC "-//W3C//DTD SVG 1.1//EN" "http://www.w3.org/Graphics/SVG/1.1/DTD/svg11.dtd">
<svg version="1.1" xmlns="http://www.w3.org/2000/svg" xmlns:xlink="http://www.w3.org/1999/xlink" width="22" height="32" viewBox="0 0 22 32">
<g id="icomoon-ignore">
</g>
<path d="M11.544 11.284h7.342l3.147-3.698-3.147-3.645h-7.342v-2.102h-1.049v2.102h-9.446v7.343h9.446v1.045h-7.348l-3.147 3.645 3.147 3.698h7.348v10.49h1.049v-10.49h9.44v-7.343h-9.44v-1.045zM2.098 10.234v-5.245h16.308l2.246 2.6-2.25 2.645h-16.304zM19.935 13.378v5.245h-16.303l-2.251-2.644 2.246-2.601 16.308 0z" fill="#000000"></path>
<path d="M3.139 6.034h5.245v1.049h-5.245v-1.049z" fill="#000000"></path>
<path d="M13.632 14.432h5.245v1.049h-5.245v-1.049z" fill="#000000"></path>
</svg>

<svg xmlns="http://www.w3.org/2000/svg" width="22" height="32" viewBox="0 0 22 32"><path d="M11.544 11.284h7.342l3.147-3.698-3.147-3.645h-7.342V1.839h-1.049v2.102H1.049v7.343h9.446v1.045H3.147L0 15.974l3.147 3.698h7.348v10.49h1.049v-10.49h9.44v-7.343h-9.44v-1.045zm-9.446-1.05V4.989h16.308l2.246 2.6-2.25 2.645H2.098zm17.837 3.144v5.245H3.632l-2.251-2.644 2.246-2.601h16.308z"/><path d="M3.139 6.034h5.245v1.049H3.139V6.034zM13.632 14.432h5.245v1.049h-5.245v-1.049z"/></svg>
